packages/foundations/assets/icons/functional/images/transportation/train_20.svg

<svg width="20" height="20" viewBox="0 0 20 20" fill="none" xmlns="http://www.w3.org/2000/svg">
<g clip-path="url(#clip0_187_962)">
<path fill-rule="evenodd" clip-rule="evenodd" d="M12.003 18H8.00299C7.52681 18 7.12837 17.6672 7.0276 17.2215C6.42785 16.7958 5.90933 16.1526 5.51053 15.2004C6.21209 15.7055 6.70981 16.0482 7.00369 16.2286C7.44451 16.4992 8.00058 16.6977 8.66201 16.7417L11.344 16.7417C11.9228 16.7032 12.5143 16.5256 13.0038 16.2286C13.3301 16.0306 13.9074 15.6292 14.7355 15.0246C14.3195 16.0277 13.7191 16.8074 12.9621 17.2839C12.8141 17.7613 12.4944 18 12.003 18ZM9.97692 2C13.6606 2 15.4509 4.50242 15.4968 8.0058L15.5 10.0135C15.5 10.7933 15.4638 11.7588 15.3528 12.6259C14.9885 12.9423 14.5368 13.3017 13.9978 13.7042C13.4588 14.1066 12.9115 14.4931 12.3559 14.8635C12.0369 15.0794 11.5738 15.25 11.0951 15.25H8.91092C8.43682 15.25 7.96519 15.0748 7.65007 14.8635C7.33495 14.6523 6.58925 14.1336 6.00818 13.7042C5.6208 13.4179 5.24014 13.1185 4.86621 12.806C4.62207 11.4944 4.5 10.5617 4.5 10.0077C4.5 9.89307 4.5 9.22576 4.5 8.0058C4.5 4.50242 6.2076 2 9.97692 2ZM8.17583 11.1684C8.01295 10.8369 7.62603 10.6684 7.26582 10.7885C6.90561 10.9086 6.69714 11.2755 6.76579 11.6385L7.33016 13.3316C7.49304 13.6631 7.87995 13.8316 8.24016 13.7115C8.60037 13.5914 8.80884 13.2245 8.74019 12.8615L8.17583 11.1684ZM12.7402 10.7885C12.38 10.6684 11.993 10.8369 11.8302 11.1684L11.2658 12.8615C11.1971 13.2245 11.4056 13.5914 11.7658 13.7115C12.126 13.8316 12.5129 13.6631 12.6758 13.3316L13.2402 11.6385C13.3088 11.2755 13.1004 10.9086 12.7402 10.7885ZM10.003 4C8.84915 4 7.93124 4.18198 7.2493 4.54595C6.47636 4.95848 5.97019 5.89639 6.10523 6.8216C6.30162 7.76871 6.42626 8.33283 6.47915 8.51396C6.63861 9.06009 7.07538 9.47628 7.62036 9.61347C8.58949 9.78673 9.38374 9.87521 10.0031 9.87893C10.6225 9.88265 11.3718 9.80344 12.251 9.64129C12.8593 9.54422 13.3573 9.10551 13.5303 8.51431C13.6079 8.24931 13.8587 7.11861 13.9031 6.81839C14.031 5.95443 13.2295 4.75577 12.5699 4.45346C11.9103 4.15115 11.0547 4 10.003 4Z" fill="#1A1C1F"/>
</g>
<defs>
<clipPath id="clip0_187_962">
<rect width="20" height="20" fill="white"/>
</clipPath>
</defs>
</svg>

<svg xmlns="http://www.w3.org/2000/svg" width="20" height="20" fill="none"><g clip-path="url(#a)"><path fill="#1A1C1F" fill-rule="evenodd" d="M12.003 18h-4a1 1 0 0 1-.975-.779c-.6-.425-1.119-1.068-1.517-2.02q1.052.757 1.493 1.028c.44.27.997.469 1.658.513h2.682a3.7 3.7 0 0 0 1.66-.513q.489-.297 1.732-1.204c-.417 1.003-1.017 1.782-1.774 2.259q-.222.716-.959.716M9.977 2c3.684 0 5.474 2.502 5.52 6.006l.003 2.008c0 .78-.036 1.745-.147 2.612q-.546.474-1.355 1.078a38 38 0 0 1-1.642 1.16 2.33 2.33 0 0 1-1.26.386H8.91c-.474 0-.946-.175-1.26-.386-.316-.212-1.062-.73-1.643-1.16a24 24 0 0 1-1.142-.898Q4.5 10.839 4.5 10.008V8.006C4.5 4.502 6.208 2 9.977 2m-1.801 9.168a.75.75 0 0 0-1.41.47l.564 1.694a.75.75 0 0 0 1.41-.47zm4.564-.38a.75.75 0 0 0-.91.38l-.564 1.694a.75.75 0 0 0 1.41.47l.564-1.694a.75.75 0 0 0-.5-.85M10.003 4q-1.731 0-2.754.546a2.27 2.27 0 0 0-1.144 2.276q.295 1.42.374 1.692c.16.546.596.962 1.141 1.1q1.455.26 2.383.265.93.005 2.248-.238a1.6 1.6 0 0 0 1.28-1.127c.077-.265.328-1.395.372-1.696.128-.864-.674-2.062-1.333-2.365Q11.58 4 10.003 4" clip-rule="evenodd"/></g><defs><clipPath id="a"><path fill="#fff" d="M0 0h20v20H0z"/></clipPath></defs></svg>
